X: 17
T:Fanny Frail (Fanny Frail)
M:4/4
L:1/8
K:D
F2 A2 G2 B2 | A2 de fe d2 | g2 f2 e2 d2 | c2 B2 ABAG |
 F2 AF G2 B2 | A2 de f2 d2 | g2 f2 e2 d2 | d2 c2 d4 :|
e2 AA f2 AA | g2 f2 e3f | g2 f2 e2 d2 | c2 B2 ABAG |
 F2 AF G2 B2 | A2 de f2 d2 | g2 f2 e2 d2 | d2 c2 d4 :|
